public/static/icons/24px/hashtag.svg

<svg width="24" height="24" viewBox="0 0 24 24" fill="none" xmlns="http://www.w3.org/2000/svg">
<path fill-rule="evenodd" clip-rule="evenodd" d="M12.9664 21C12.6417 21 12.4031 20.6953 12.481 20.3801L13.4642 16.4005C13.5421 16.0853 13.3035 15.7806 12.9788 15.7806H8.59569C8.36574 15.7806 8.16544 15.9375 8.11028 16.1607L7.00853 20.6199C6.95337 20.8432 6.75307 21 6.52312 21H5.90197C5.57781 21 5.33935 20.6963 5.41624 20.3814L6.38868 16.3992C6.46558 16.0843 6.22712 15.7806 5.90296 15.7806H3.45433C3.13126 15.7806 2.89301 15.4788 2.96798 15.1646L3.05929 14.7819C3.113 14.5568 3.31419 14.3979 3.54564 14.3979H6.50572C6.73678 14.3979 6.93775 14.2396 6.99183 14.015L7.93568 10.0945C8.01139 9.78004 7.77305 9.47751 7.44957 9.47751H4.8352C4.51171 9.47751 4.27337 9.17498 4.34909 8.86047L4.43823 8.49023C4.49231 8.26559 4.69328 8.10726 4.92434 8.10726H8.02467C8.25367 8.10726 8.4534 7.9517 8.50946 7.72967L9.60834 3.37759C9.6644 3.15557 9.86413 3 10.0931 3H10.7166C11.0407 3 11.2792 3.30353 11.2024 3.61838L10.2592 7.48889C10.1825 7.80373 10.421 8.10726 10.745 8.10726H15.1023C15.3313 8.10726 15.531 7.9517 15.5871 7.72967L16.686 3.37759C16.742 3.15557 16.9417 3 17.1707 3H17.8056C18.1308 3 18.3695 3.30554 18.2907 3.62107L17.3262 7.4862C17.2474 7.80172 17.4861 8.10726 17.8113 8.10726H20.5469C20.8682 8.10726 21.1061 8.40606 21.0342 8.71925L20.9491 9.08949C20.8969 9.31657 20.6948 9.47751 20.4618 9.47751H17.219C16.9885 9.47751 16.7879 9.63511 16.7333 9.85908L15.7775 13.7795C15.7007 14.0943 15.9391 14.3979 16.2632 14.3979H19.1536C19.4746 14.3979 19.7124 14.696 19.6411 15.0089L19.554 15.3916C19.5021 15.6192 19.2998 15.7806 19.0665 15.7806H15.6883C15.4583 15.7806 15.258 15.9375 15.2029 16.1607L14.1011 20.6199C14.046 20.8432 13.8457 21 13.6157 21H12.9664ZM8.69724 13.8052C8.62111 14.1199 8.8595 14.4228 9.18322 14.4228H13.5814C13.8128 14.4228 14.0139 14.2641 14.0677 14.039L15.0133 10.0812C15.0884 9.76695 14.8502 9.46504 14.527 9.46504H10.1409C9.91001 9.46504 9.70917 9.62308 9.65488 9.84745L8.69724 13.8052Z" fill="currentColor"/>
</svg>

<svg viewBox="0 0 24 24" xmlns="http://www.w3.org/2000/svg"><path d="M12.966 21a.5.5 0 01-.486-.62l.984-3.98a.5.5 0 00-.486-.62H8.595a.5.5 0 00-.485.38l-1.102 4.46a.5.5 0 01-.485.38H5.9a.5.5 0 01-.485-.619l.972-3.982a.5.5 0 00-.486-.618H3.454a.5.5 0 01-.487-.616l.092-.383a.5.5 0 01.486-.384h2.96a.5.5 0 00.486-.383l.944-3.92a.5.5 0 00-.486-.617H4.835a.5.5 0 01-.487-.618l.09-.37a.5.5 0 01.486-.383h3.1a.5.5 0 00.485-.377l1.099-4.352A.5.5 0 0110.093 3h.623a.5.5 0 01.486.618l-.943 3.87a.5.5 0 00.485.62h4.358a.5.5 0 00.485-.378l1.098-4.352A.5.5 0 0117.17 3h.635a.5.5 0 01.485.621l-.964 3.865a.5.5 0 00.485.621h2.735a.5.5 0 01.488.612l-.085.37a.5.5 0 01-.488.389h-3.243a.5.5 0 00-.485.381l-.956 3.92a.5.5 0 00.486.619h2.89a.5.5 0 01.488.61l-.088.384a.5.5 0 01-.487.389h-3.378a.5.5 0 00-.486.38l-1.101 4.459a.5.5 0 01-.486.38h-.65zm-4.27-7.195a.5.5 0 00.487.618h4.398a.5.5 0 00.486-.384l.946-3.958a.5.5 0 00-.487-.616H10.14a.5.5 0 00-.486.382l-.957 3.958z" fill="currentColor"  fill-rule="evenodd"/></svg>
